lib/svgs/stack-cancel.svg

<?xml version="1.0" encoding="UTF-8"?>
<svg width="16px" height="16px" viewBox="0 0 16 16" version="1.1" xmlns="http://www.w3.org/2000/svg" xmlns:xlink="http://www.w3.org/1999/xlink">
    <!-- Generator: sketchtool 51.3 (57544) - http://www.bohemiancoding.com/sketch -->
    <title>stack-cancel</title>
    <desc>Created with sketchtool.</desc>
    <defs></defs>
    <g id="Icons" stroke="none" stroke-width="1" fill="none" fill-rule="evenodd">
        <g id="Deprecated" transform="translate(-162.000000, -329.000000)" fill="#000000" fill-rule="nonzero">
            <g id="stack-cancel" transform="translate(162.000000, 329.000000)">
                <path d="M8.9251655,10.3465818 L10.4569466,11.9748544 C10.6840006,12.2162112 10.6724059,12.5959332 10.431049,12.8229872 C10.1896922,13.0500412 9.80997019,13.0384465 9.58291618,12.7970897 L8.04699851,11.1644199 L6.5268262,12.79195 C6.2939352,13.0276795 5.91404318,13.0299806 5.67831362,12.7970897 C5.44258406,12.5641987 5.44028295,12.1843066 5.67317394,11.9485771 L7.19476763,10.3393919 L5.66298656,8.7111193 C5.43593255,8.46976248 5.44752727,8.09004047 5.6888841,7.86298646 C5.93024093,7.63593245 6.30996294,7.64752718 6.53701694,7.88888401 L8.07293461,9.52155377 L9.59310693,7.89402369 C9.82599792,7.65829413 10.2058899,7.65599301 10.4416195,7.88888401 C10.6773491,8.121775 10.6796502,8.50166702 10.4467592,8.73739658 L8.9251655,10.3465818 Z M2,4.6999999 L14,4.6999999 C15.1045695,4.6999999 16,5.5954304 16,6.6999999 L16,13.6999999 C16,14.8045694 15.1045695,15.6999999 14,15.6999999 L2,15.6999999 C0.8954305,15.6999999 1.3527075e-16,14.8045694 0,13.6999999 L0,6.6999999 C-1.3527075e-16,5.5954304 0.8954305,4.6999999 2,4.6999999 Z M2,5.8999999 C1.5581722,5.8999999 1.2,6.2581721 1.2,6.6999999 L1.2,13.6999999 C1.2,14.1418277 1.5581722,14.4999999 2,14.4999999 L14,14.4999999 C14.4418278,14.4999999 14.8,14.1418277 14.8,13.6999999 L14.8,6.6999999 C14.8,6.2581721 14.4418278,5.8999999 14,5.8999999 L2,5.8999999 Z M2.38125,4.39999971 L1.18125,4.39999971 C1.18125,3.44676423 2.1867667,2.79999971 3.3359375,2.79999971 L12.6640625,2.79999971 C13.8132333,2.79999971 14.81875,3.44676423 14.81875,4.39999971 L13.61875,4.39999971 C13.61875,4.2486657 13.2321521,3.99999971 12.6640625,3.99999971 L3.3359375,3.99999971 C2.7678479,3.99999971 2.38125,4.2486657 2.38125,4.39999971 Z M3.97656236,2.40000001 L2.77656236,2.40000001 C2.77656236,1.57180447 3.59266805,1 4.51835924,1 L11.3691406,1 C12.2948318,1 13.1109375,1.57180447 13.1109375,2.40000001 L11.9109375,2.40000001 C11.9109375,2.34453994 11.7046434,2.2 11.3691406,2.2 L4.51835924,2.2 C4.18285643,2.2 3.97656236,2.34453994 3.97656236,2.40000001 Z"></path>
            </g>
        </g>
    </g>
</svg>

<svg xmlns="http://www.w3.org/2000/svg" viewBox="0 0 16 16">
    <path d="M8.925 10.347l1.532 1.628a.6.6 0 1 1-.874.822l-1.536-1.633-1.52 1.628a.6.6 0 0 1-.854-.843l1.522-1.61-1.532-1.628a.6.6 0 1 1 .874-.822l1.536 1.633 1.52-1.628a.6.6 0 1 1 .854.843l-1.522 1.61zM2 4.7h12a2 2 0 0 1 2 2v7a2 2 0 0 1-2 2H2a2 2 0 0 1-2-2v-7a2 2 0 0 1 2-2zm0 1.2a.8.8 0 0 0-.8.8v7a.8.8 0 0 0 .8.8h12a.8.8 0 0 0 .8-.8v-7a.8.8 0 0 0-.8-.8H2zm.381-1.5h-1.2c0-.953 1.006-1.6 2.155-1.6h9.328c1.15 0 2.155.647 2.155 1.6h-1.2c0-.151-.387-.4-.955-.4H3.336c-.568 0-.955.249-.955.4zm1.596-2h-1.2c0-.828.816-1.4 1.741-1.4h6.851c.926 0 1.742.572 1.742 1.4h-1.2c0-.055-.206-.2-.542-.2H4.52c-.336 0-.542.145-.542.2z"/>
</svg>
